X:1
T:Title
L:1/8
Q:1/4=100
M:4/4
K:Eb
V:1 treble nm="Grand Piano"
V:1
 G G2 A G3 F- | F E2 F G4 | G G2 B A2 G2 | A8 | F F2 G F3 E- | E D2 E F4 | F F2 A G2 F2 | G8 | %8
w: ????~???? * * * *||||||||
 G d2 c B4 | F c2 B A4 | G d2 c B4 | F c2 B A4 | D D2 E F2 A2 | G8 | G d2 c B4 | F c2 B A4 | %16
w: ||||||||
 G d2 c B4 | F c2 B A4 | D D2 E F2 A2 | G8 |] %20
w: ||||

